X:293
T:The Goose and Gridiron
C:Thompson, 1773
M:6/8
S:Colin Hume's website,  colinhume.com  - chords can also be printed below the stave.
Q:3/8=112
L:1/8
K:A
P:A
"A"A3 "E7"B3 | "A"cea ecA | "D"fed "Bm"cBA | "E7"GBA GFE |\
"A"A2a A2a | "F#m"A2a agf | "E"gfe "B7"Bc^d | "E"e3 E3 :|
P:B
|: "E"E2e e^de | "E7"E2d dcd | "A"ced cBA | "E7"GBA GFE |\
"A"A2a "Bm"A2a | "A/C#"A2a "D"agf | "A/E"edc "E7"BAG | "A"A3 A3 :|

